X:1
T:Title
%%score { ( 1 4 ) | ( 2 3 ) }
L:1/8
Q:1/4=100
M:4/4
K:F
V:1 treble nm="Grand Piano"
V:4 treble 
V:2 bass 
V:3 bass 
V:1
 c2 c2 A2 F2 | GF[B,CG]A F2 C2 | c2 c2 A2 F2 | GF[B,CG]A [A,CF]4 | [CEG]2 [CGc]2 [CFA]2 [CF]2 | %5
w: Henry~Kemble~Oliver * * *|||||
 [G,DG]2 [Ec]2 A2 F2 | z4 c4 |[M:8/4] [FA]2 [B,EG]2 [A,F]4 z8 |[M:4/4] [B,DF]8 | [A,CF]8 |] %10
w: |||||
V:2
 [F,A,F]2 [F,A,F]2 [F,CF]2 [F,A,C]2 | B,A, z C [F,A,C]2 [G,B,]2 | %2
 [A,CF]2 [F,A,F]2[K:bass] [F,CF]2 [F,A,C]2 | B,A, z C F,4 | C,2 E,2 F,2 A,,2 | %5
 B,,2 [C,G,]2 [F,A,F]2 [F,A,C]2 | .A,2 .B,2 F4 |[M:8/4] C2 B,,2 F,4 z8 |[M:4/4] B,,8 | F,8 |] %10
V:3
 x8 | [C,C]2 C,2 z4 | x4[K:bass] x4 | [C,C]2 C,2 z4 | x8 | x8 | %6
 [F,F]-[F,CF][F,F]-[F,A,F] [F,A,]G,A,B, |[M:8/4] x16 |[M:4/4] x8 | x8 |] %10
V:4
 x8 | x8 | x8 | x8 | x8 | x8 | fedc z B,C[DGB] |[M:8/4] x16 |[M:4/4] x8 | x8 |] %10

